packages/ffe-icons/icons/filled/sm/sensor_door.svg

<svg xmlns="http://www.w3.org/2000/svg" height="20" viewBox="0 -960 960 960" width="20"><path d="M276.309-164.001q-26.527 0-45.417-19.241-18.891-19.24-18.891-45.067v-503.382q0-26.527 18.891-45.417 18.89-18.891 45.417-18.891h407.382q25.827 0 45.067 18.891 19.241 18.89 19.241 45.417v503.382q0 25.827-19.241 45.067-19.24 19.241-45.067 19.241H276.309Zm347.646-278q15.814 0 26.929-11.07 11.115-11.07 11.115-26.884t-11.07-26.929q-11.07-11.115-26.884-11.115t-26.929 11.07q-11.115 11.07-11.115 26.884t11.07 26.929q11.07 11.115 26.884 11.115Z"/></svg>

<svg xmlns="http://www.w3.org/2000/svg" height="20" viewBox="0 -960 960 960" width="20"><path d="M276.31-164q-26.53 0-45.42-19.24T212-228.31v-503.38q0-26.53 18.89-45.42T276.31-796h407.38q25.83 0 45.07 18.89Q748-758.22 748-731.69v503.38q0 25.83-19.24 45.07Q709.52-164 683.69-164H276.31Zm347.64-278q15.82 0 26.93-11.07Q662-464.14 662-479.95q0-15.82-11.07-26.93Q639.86-518 624.05-518q-15.82 0-26.93 11.07Q586-495.86 586-480.05q0 15.82 11.07 26.93Q608.14-442 623.95-442Z"/></svg>
